X:365
T: Tom Moran's Fancy
S: B.Breathnach: "Ceol Rince na hEireann" II/80 (gan ainm)
Z: B.Black
L: 1/8
M: 12/8
R: slide
Q: 375
K: D
A2A B2G A2F G2E|D2F A2d B2E E3|
A2A B2G A2F G2E|1 D2F A2E F2D D3 :|2\
D2F A2E F2D D2 ||
A|d2g f2e d2g f2e|d2g f2e d2A A2e|
fgf e2c d2B A2G|F2A G2E F2D D2 :|

